apps/scalable/9AD6_Origin.svg

<svg xmlns="http://www.w3.org/2000/svg" style="isolation:isolate" width="256" height="256"><defs><filter id="a" width="270.648" height="254.338" x="-7.32" y="2.95" filterUnits="userSpaceOnUse"><feGaussianBlur xmlns="http://www.w3.org/2000/svg" in="SourceGraphic" stdDeviation="4.294"/><feOffset xmlns="http://www.w3.org/2000/svg" dy="4" result="pf_100_offsetBlur"/><feFlood xmlns="http://www.w3.org/2000/svg" flood-opacity=".4"/><feComposite xmlns="http://www.w3.org/2000/svg" in2="pf_100_offsetBlur" operator="in" result="pf_100_dropShadow"/><feBlend xmlns="http://www.w3.org/2000/svg" in="SourceGraphic" in2="pf_100_dropShadow"/></filter></defs><g filter="url(#a)"><linearGradient id="b" x1=".733" x2=".267" y1="1.071" y2=".005" gradientTransform="matrix(244.648 0 0 228.338 5.676 11.947)" gradientUnits="userSpaceOnUse"><stop offset="0%" stop-color="#f37e40"/><stop offset="100%" stop-color="#f34f17"/></linearGradient><path fill="url(#b)" d="M165.685 11.947c74.055 0 84.639 10.557 84.639 84.544v59.251c0 73.986-10.584 84.543-84.639 84.543h-75.37c-74.055 0-84.639-10.557-84.639-84.543V96.491c0-73.987 10.584-84.544 84.639-84.544h75.37z"/></g><g opacity=".4"><linearGradient id="c" x1=".517" x2=".517" y2="1"><stop offset="0%" stop-color="#fff"/><stop offset="12.5%" stop-opacity=".098" stop-color="#fff"/><stop offset="92.5%" stop-opacity=".098"/><stop offset="100%" stop-opacity=".498"/></linearGradient><path fill="none" stroke="url(#c)" stroke-linecap="round" stroke-linejoin="round" stroke-width="4.077" d="M165.685 11.947c74.055 0 84.639 10.557 84.639 84.544v59.251c0 73.986-10.584 84.543-84.639 84.543h-75.37c-74.055 0-84.639-10.557-84.639-84.543V96.491c0-73.987 10.584-84.544 84.639-84.544h75.37z" vector-effect="non-scaling-stroke"/></g><g filter="url(#tDS5QYtSxjrIT5Fao0fHA1Onw2SMa8Wh)"><linearGradient id="d" x1=".233" x2=".933" y1="-.071" y2=".995" gradientTransform="matrix(106.155 0 0 138 74.923 59)" gradientUnits="userSpaceOnUse"><stop offset="0%" stop-color="#e8e8e8"/><stop offset="100%" stop-color="#f5f5f5"/></linearGradient><path fill="url(#d)" fill-rule="evenodd" d="M127.109 59.013c-.898-.073-1.952.148-3.1.768-31.154 16.809-49.359 47.163-49.083 67.401.399 29.436 22.988 53.532 56.673 52.713-1.548 7.849-6.201 10.447-5.515 14.181.271 1.477 2.432 4.01 5.36 2.415 29.901-16.289 49.023-45.378 49.612-66.323.805-28.62-20.969-55.767-56.816-53.947.849-3.961 2.839-7.474 5.328-11.579 1.552-2.56.236-5.409-2.457-5.628l-.002-.001zm.892 47.758c11.724 0 21.229 9.505 21.229 21.231 0 11.725-9.505 21.23-21.229 21.23-11.725 0-21.23-9.505-21.23-21.23 0-11.726 9.505-21.231 21.23-21.231z"/></g><defs><filter id="tDS5QYtSxjrIT5Fao0fHA1Onw2SMa8Wh" width="166.155" height="198" x="44.92" y="33" filterUnits="userSpaceOnUse"><feGaussianBlur xmlns="http://www.w3.org/2000/svg" in="SourceGraphic" stdDeviation="4.294"/><feOffset xmlns="http://www.w3.org/2000/svg" dy="4" result="pf_100_offsetBlur"/><feFlood xmlns="http://www.w3.org/2000/svg" flood-opacity=".4"/><feComposite xmlns="http://www.w3.org/2000/svg" in2="pf_100_offsetBlur" operator="in" result="pf_100_dropShadow"/><feBlend xmlns="http://www.w3.org/2000/svg" in="SourceGraphic" in2="pf_100_dropShadow"/></filter></defs></svg>

<svg xmlns="http://www.w3.org/2000/svg" style="isolation:isolate" width="256" height="256" viewBox="0 0 256 256">
 <defs>
  <filter id="zyO2Dk1pWYDvtKxGP07rCeiJ5bsbGoOi" width="270.648" height="254.338" x="-7.32" y="2.95" filterUnits="userSpaceOnUse">
   <feGaussianBlur xmlns="http://www.w3.org/2000/svg" in="SourceGraphic" stdDeviation="4.294"/>
   <feOffset xmlns="http://www.w3.org/2000/svg" dx="0" dy="4" result="pf_100_offsetBlur"/>
   <feFlood xmlns="http://www.w3.org/2000/svg" flood-opacity=".4"/>
   <feComposite xmlns="http://www.w3.org/2000/svg" in2="pf_100_offsetBlur" operator="in" result="pf_100_dropShadow"/>
   <feBlend xmlns="http://www.w3.org/2000/svg" in="SourceGraphic" in2="pf_100_dropShadow" mode="normal"/>
  </filter>
 </defs>
 <g filter="url(#zyO2Dk1pWYDvtKxGP07rCeiJ5bsbGoOi)">
  <linearGradient id="_lgradient_14" x1=".733" x2=".267" y1="1.071" y2=".005" gradientTransform="matrix(244.648,0,0,228.338,5.676,11.947)" gradientUnits="userSpaceOnUse">
   <stop offset="0%" style="stop-color:rgb(243,126,64)"/>
   <stop offset="100%" style="stop-color:rgb(243,79,23)"/>
  </linearGradient>
  <path fill="url(#_lgradient_14)" d="M 165.685 11.947 C 239.74 11.947 250.324 22.504 250.324 96.491 L 250.324 155.742 C 250.324 229.728 239.74 240.285 165.685 240.285 L 90.315 240.285 C 16.26 240.285 5.676 229.728 5.676 155.742 L 5.676 96.491 C 5.676 22.504 16.26 11.947 90.315 11.947 L 165.685 11.947 Z"/>
 </g>
 <g opacity=".4">
  <linearGradient id="_lgradient_15" x1=".517" x2=".517" y1="0" y2="1">
   <stop offset="0%" style="stop-color:rgb(255,255,255)"/>
   <stop offset="12.5%" stop-opacity=".098" style="stop-color:rgb(255,255,255)"/>
   <stop offset="92.5%" stop-opacity=".098" style="stop-color:rgb(0,0,0)"/>
   <stop offset="100%" stop-opacity=".498" style="stop-color:rgb(0,0,0)"/>
  </linearGradient>
  <path fill="none" stroke="url(#_lgradient_15)" stroke-linecap="round" stroke-linejoin="round" stroke-width="4.077" d="M 165.685 11.947 C 239.74 11.947 250.324 22.504 250.324 96.491 L 250.324 155.742 C 250.324 229.728 239.74 240.285 165.685 240.285 L 90.315 240.285 C 16.26 240.285 5.676 229.728 5.676 155.742 L 5.676 96.491 C 5.676 22.504 16.26 11.947 90.315 11.947 L 165.685 11.947 Z" vector-effect="non-scaling-stroke"/>
 </g>
 <g filter="url(#tDS5QYtSxjrIT5Fao0fHA1Onw2SMa8Wh)">
  <linearGradient id="_lgradient_16" x1=".233" x2=".933" y1="-.071" y2=".995" gradientTransform="matrix(106.155,0,0,138,74.923,59)" gradientUnits="userSpaceOnUse">
   <stop offset="0%" style="stop-color:rgb(232,232,232)"/>
   <stop offset="100%" style="stop-color:rgb(245,245,245)"/>
  </linearGradient>
  <path fill="url(#_lgradient_16)" fill-rule="evenodd" d="M 127.109 59.013 C 126.211 58.94 125.157 59.161 124.009 59.781 C 92.855 76.59 74.65 106.944 74.926 127.182 C 75.325 156.618 97.914 180.714 131.599 179.895 C 130.051 187.744 125.398 190.342 126.084 194.076 C 126.355 195.553 128.516 198.086 131.444 196.491 C 161.345 180.202 180.467 151.113 181.056 130.168 C 181.861 101.548 160.087 74.401 124.24 76.221 C 125.089 72.26 127.079 68.747 129.568 64.642 C 131.12 62.082 129.804 59.233 127.111 59.014 L 127.109 59.013 Z M 128.001 106.771 C 139.725 106.771 149.23 116.276 149.23 128.002 C 149.23 139.727 139.725 149.232 128.001 149.232 C 116.276 149.232 106.771 139.727 106.771 128.002 C 106.771 116.276 116.276 106.771 128.001 106.771 Z"/>
 </g>
 <defs>
  <filter id="tDS5QYtSxjrIT5Fao0fHA1Onw2SMa8Wh" width="166.155" height="198" x="44.92" y="33" filterUnits="userSpaceOnUse">
   <feGaussianBlur xmlns="http://www.w3.org/2000/svg" in="SourceGraphic" stdDeviation="4.294"/>
   <feOffset xmlns="http://www.w3.org/2000/svg" dx="0" dy="4" result="pf_100_offsetBlur"/>
   <feFlood xmlns="http://www.w3.org/2000/svg" flood-opacity=".4"/>
   <feComposite xmlns="http://www.w3.org/2000/svg" in2="pf_100_offsetBlur" operator="in" result="pf_100_dropShadow"/>
   <feBlend xmlns="http://www.w3.org/2000/svg" in="SourceGraphic" in2="pf_100_dropShadow" mode="normal"/>
  </filter>
 </defs>
</svg>
